X:0559
T:The Red Jock.
M:C
L:1/8
Q:1/2=96 "Moderato"
I: :: :: ::
Z:Jack Campin * www.campin.me.uk * 2009
K:G
ba|g3 a g2B2|dBde d2ba|g3 a g2B2|{B}A4 z2\
ba|g3 a g2B2|dBde d2ef|g2e2 d2B2|   G6 ::
e2|d2G2 BcdB|d2G2 g3 e|d2G2 BcdB|{B}A4 z2\
e2|d2G2 BcdB|d2G2 g3 a|bage gedB|   G6 ::
D2|GABG BcdB|GABG Bcde|d2B2 dBAG|{B}A6   \
D2|GABG BcdB|GABG Bcde|d2B2 dcAF|{F}G6 :|

